; G-Code generated by Simplify3D(R) Version 4.0.1
; Mar 29, 2018 at 8:26:54 PM
; Settings Summary
;   processName,Process1
;   applyToModels,Plate018
;   profileName,FlashForge Creator Pro(2) (modified)
;   profileVersion,2015-05-01 08:00:00
;   baseProfile,
;   printMaterial,ABS
;   printQuality,Medium
;   printExtruders,Right Extruder Only
;   extruderName,Right Extruder,Left Extruder
;   extruderToolheadNumber,0,1
;   extruderDiameter,0.4,0.4
;   extruderAutoWidth,0,0
;   extruderWidth,0.4,0.4
;   extrusionMultiplier,1.05,1.05
;   extruderUseRetract,1,1
;   extruderRetractionDistance,1,1
;   extruderExtraRestartDistance,0,0
;   extruderRetractionZLift,0,0
;   extruderRetractionSpeed,1200,1200
;   extruderUseCoasting,0,0
;   extruderCoastingDistance,0.2,0.2
;   extruderUseWipe,0,0
;   extruderWipeDistance,5,5
;   primaryExtruder,0
;   layerHeight,0.2
;   topSolidLayers,4
;   bottomSolidLayers,4
;   perimeterOutlines,4
;   printPerimetersInsideOut,1
;   startPointOption,2
;   startPointOriginX,0
;   startPointOriginY,0
;   sequentialIslands,0
;   spiralVaseMode,0
;   firstLayerHeightPercentage,90
;   firstLayerWidthPercentage,100
;   firstLayerUnderspeed,0.2
;   useRaft,0
;   raftExtruder,0
;   raftTopLayers,2
;   raftBaseLayers,2
;   raftOffset,3
;   raftSeparationDistance,0.14
;   raftTopInfill,100
;   aboveRaftSpeedMultiplier,0.3
;   useSkirt,1
;   skirtExtruder,0
;   skirtLayers,1
;   skirtOutlines,1
;   skirtOffset,4
;   usePrimePillar,0
;   primePillarExtruder,999
;   primePillarWidth,12
;   primePillarLocation,7
;   primePillarSpeedMultiplier,1
;   useOozeShield,0
;   oozeShieldExtruder,999
;   oozeShieldOffset,2
;   oozeShieldOutlines,1
;   oozeShieldSidewallShape,1
;   oozeShieldSidewallAngle,30
;   oozeShieldSpeedMultiplier,1
;   infillExtruder,0
;   internalInfillPattern,Rectilinear
;   externalInfillPattern,Rectilinear
;   infillPercentage,20
;   outlineOverlapPercentage,30
;   infillExtrusionWidthPercentage,100
;   minInfillLength,5
;   infillLayerInterval,1
;   internalInfillAngles,45,-45
;   overlapInternalInfillAngles,0
;   externalInfillAngles,45,-45
;   generateSupport,1
;   supportExtruder,0
;   supportInfillPercentage,30
;   supportExtraInflation,0
;   supportBaseLayers,0
;   denseSupportExtruder,0
;   denseSupportLayers,0
;   denseSupportInfillPercentage,70
;   supportLayerInterval,1
;   supportHorizontalPartOffset,0.3
;   supportUpperSeparationLayers,1
;   supportLowerSeparationLayers,1
;   supportType,1
;   supportGridSpacing,5
;   maxOverhangAngle,51
;   supportAngles,0
;   temperatureName,Right Extruder,Left Extruder,Heated Build Platform
;   temperatureNumber,0,1,0
;   temperatureSetpointCount,1,1,1
;   temperatureSetpointLayers,1,1,1
;   temperatureSetpointTemperatures,230,0,110
;   temperatureStabilizeAtStartup,0,0,0
;   temperatureHeatedBed,0,0,1
;   temperatureRelayBetweenLayers,0,0,0
;   temperatureRelayBetweenLoops,0,0,0
;   fanLayers,1
;   fanSpeeds,0
;   blipFanToFullPower,0
;   adjustSpeedForCooling,1
;   minSpeedLayerTime,15
;   minCoolingSpeedSlowdown,20
;   increaseFanForCooling,0
;   minFanLayerTime,45
;   maxCoolingFanSpeed,100
;   increaseFanForBridging,1
;   bridgingFanSpeed,100
;   use5D,1
;   relativeEdistances,1
;   allowEaxisZeroing,0
;   independentExtruderAxes,1
;   includeM10123,0
;   stickySupport,1
;   applyToolheadOffsets,0
;   gcodeXoffset,0
;   gcodeYoffset,0
;   gcodeZoffset,0
;   overrideMachineDefinition,1
;   machineTypeOverride,0
;   strokeXoverride,225
;   strokeYoverride,145
;   strokeZoverride,150
;   originOffsetXoverride,112.5
;   originOffsetYoverride,72.5
;   originOffsetZoverride,0
;   homeXdirOverride,1
;   homeYdirOverride,1
;   homeZdirOverride,-1
;   flipXoverride,1
;   flipYoverride,-1
;   flipZoverride,1
;   toolheadOffsets,0,0|34,0|0,0|0,0|0,0|0,0
;   overrideFirmwareConfiguration,1
;   firmwareTypeOverride,MakerBot/Sailfish Firmware
;   GPXconfigOverride,r1d
;   baudRateOverride,115200
;   overridePrinterModels,1
;   printerModelsOverride,FlashForge_CreatorPro.stl
;   startingGcode,; **** Replicator 1 dual start.gcode ****,M73 P0 ; enable build progress,G162 X Y F3000 ; home XY maximum,G161 Z F1200 ; home Z minimum,G92 Z-5 ; set Z to -5,G1 Z0 ; move Z to 0,G161 Z F100 ; home Z slowly,M132 X Y Z A B ; recall home offsets,M135 T0 ; load right extruder offsets,G1 X150 Y-70 Z30 F9000 ; move to wait position right hand side of the table,G130 X20 Y20 Z20 A20 B20 ; lower stepper Vrefs while heating,M126 S[fan_speed_pwm],M140 S[bed0_temperature] T0,M134 T0 ; stabilize bed temperature,M104 S[extruder0_temperature] T0,M133 T0 ; stabilize right extruder temperature,G130 X127 Y127 Z40 A127 B127 ; default stepper Vrefs,G92 A0 B0 ; zero extruders,G1 Z0.4 ; position nozzle,G1 X110 Y-70 E25 F300 ; purge nozzle,G1 X120 Y-70 Z0.15 F1200 ; slow wipe,G1 X110 Y-70 Z0.5 F1200 ; lift,G92 A0 B0 ; zero extruders,M73 P1 ;@body (notify GPX body has started),; **** end of start.gcode ****
;   layerChangeGcode,
;   retractionGcode,
;   toolChangeGcode,
;   endingGcode,; **** Replicator 1 dual end.gcode ****,M73 P100 ; end build progress,G1 Z150 F1000 ; send Z axis to bottom of machine,M140 S0 T0 ; cool down HBP,M104 S0 T0 ; cool down right extruder,M104 S0 T1 ; cool down left extruder,M127 ; stop blower fan,G162 X Y F3000 ; home XY maximum,M18 ; disable stepper,M72 P1 ; play Ta-Da song,; **** end of end.gcode ****
;   exportFileFormat,x3g
;   celebration,0
;   celebrationSong,Random Song
;   postProcessing,
;   defaultSpeed,3600
;   outlineUnderspeed,0.5
;   solidInfillUnderspeed,0.8
;   supportUnderspeed,0.8
;   rapidXYspeed,4200
;   rapidZspeed,1200
;   minBridgingArea,50
;   bridgingExtraInflation,0
;   bridgingExtrusionMultiplier,1
;   bridgingSpeedMultiplier,0.8
;   useFixedBridgingAngle,0
;   fixedBridgingAngle,0
;   applyBridgingToPerimeters,0
;   filamentDiameters,1.75|1.75|1.75|1.75|1.75|1.75
;   filamentPricesPerKg,46|46|46|46|46|46
;   filamentDensities,1.25|1.25|1.25|1.25|1.25|1.25
;   useMinPrintHeight,0
;   minPrintHeight,0
;   useMaxPrintHeight,0
;   maxPrintHeight,0
;   useDiaphragm,0
;   diaphragmLayerInterval,20
;   robustSlicing,1
;   mergeAllIntoSolid,0
;   onlyRetractWhenCrossingOutline,1
;   retractBetweenLayers,1
;   useRetractionMinTravel,0
;   retractionMinTravel,3
;   retractWhileWiping,0
;   onlyWipeOutlines,1
;   avoidCrossingOutline,0
;   maxMovementDetourFactor,3
;   toolChangeRetractionDistance,12
;   toolChangeExtraRestartDistance,-0.5
;   toolChangeRetractionSpeed,600
;   externalThinWallType,0
;   internalThinWallType,2
;   thinWallAllowedOverlapPercentage,10
;   singleExtrusionMinLength,1
;   singleExtrusionMinPrintingWidthPercentage,50
;   singleExtrusionMaxPrintingWidthPercentage,200
;   singleExtrusionEndpointExtension,0.2
;   horizontalSizeCompensation,0
G90
M83
; **** Replicator 1 dual start.gcode ****
M73 P0 ; enable build progress
G162 X Y F3000 ; home XY maximum
G161 Z F1200 ; home Z minimum
G92 Z-5 ; set Z to -5
G1 Z0 ; move Z to 0
G161 Z F100 ; home Z slowly
M132 X Y Z A B ; recall home offsets
M135 T0 ; load right extruder offsets
G1 X150 Y-70 Z30 F9000 ; move to wait position right hand side of the table
G130 X20 Y20 Z20 A20 B20 ; lower stepper Vrefs while heating
M127
M140 S110 T0
M134 T0 ; stabilize bed temperature
M104 S230 T0
M133 T0 ; stabilize right extruder temperature
G130 X127 Y127 Z40 A127 B127 ; default stepper Vrefs
G92 A0 B0 ; zero extruders
G1 Z0.4 ; position nozzle
G1 X110 Y-70 E25 F300 ; purge nozzle
G1 X120 Y-70 Z0.15 F1200 ; slow wipe
G1 X110 Y-70 Z0.5 F1200 ; lift
G92 A0 B0 ; zero extruders
M73 P1 ;@body (notify GPX body has started)
; **** end of start.gcode ****
G1 E-1.0000 F1200
G1 Z0.180 F1200
; process Process1
; layer 1, Z = 0.180
M135 T0
; tool H0.200 W0.400
; skirt
G1 X-106.248 Y74.200 F4200
G1 E1.0000 F360
G1 X-106.260 Y74.199 E0.0004 F720
G1 X-106.752 Y74.139 E0.0173
G1 X-106.764 Y74.137 E0.0004
G1 X-109.347 Y73.501 E0.0929
G1 X-109.370 Y73.492 E0.0008
G1 X-110.252 Y73.029 E0.0348
G1 X-110.271 Y73.016 E0.0008
G1 X-112.497 Y71.044 E0.1038
G1 X-112.515 Y71.024 E0.0010
G1 X-113.123 Y70.082 E0.0392
G1 X-113.135 Y70.057 E0.0010
G1 X-114.102 Y66.953 E0.1135
G1 X-114.106 Y66.939 E0.0005
G1 X-114.199 Y66.325 E0.0217
G1 X-114.200 Y66.310 E0.0005
G1 X-114.200 Y-66.248 E4.6293
G1 X-114.199 Y-66.260 E0.0004
G1 X-114.140 Y-66.752 E0.0173
G1 X-114.137 Y-66.764 E0.0004
G1 X-113.501 Y-69.347 E0.0929
G1 X-113.492 Y-69.370 E0.0008
G1 X-113.029 Y-70.252 E0.0348
G1 X-113.016 Y-70.272 E0.0008
G1 X-111.043 Y-72.497 E0.1038
G1 X-111.023 Y-72.515 E0.0010
G1 X-110.081 Y-73.123 E0.0391
G1 X-110.057 Y-73.135 E0.0010
G1 X-106.953 Y-74.102 E0.1135
G1 X-106.939 Y-74.105 E0.0005
G1 X-106.325 Y-74.199 E0.0217
G1 X-106.310 Y-74.200 E0.0005
G1 X106.248 Y-74.200 E7.4232
G1 X106.260 Y-74.199 E0.0004
G1 X106.752 Y-74.139 E0.0173
G1 X106.764 Y-74.137 E0.0004
G1 X109.347 Y-73.501 E0.0929
G1 X109.370 Y-73.492 E0.0008
G1 X110.252 Y-73.029 E0.0348
G1 X110.271 Y-73.016 E0.0008
G1 X112.497 Y-71.044 E0.1038
G1 X112.515 Y-71.024 E0.0010
G1 X113.123 Y-70.082 E0.0392
G1 X113.135 Y-70.057 E0.0010
G1 X114.102 Y-66.953 E0.1135
G1 X114.106 Y-66.939 E0.0005
G1 X114.199 Y-66.325 E0.0217
G1 X114.200 Y-66.310 E0.0005
G1 X114.200 Y66.248 E4.6293
G1 X114.199 Y66.260 E0.0004
G1 X114.140 Y66.752 E0.0173
G1 X114.137 Y66.764 E0.0004
G1 X113.501 Y69.347 E0.0929
G1 X113.492 Y69.370 E0.0008
G1 X113.029 Y70.252 E0.0348
G1 X113.016 Y70.272 E0.0008
G1 X111.043 Y72.497 E0.1038
G1 X111.023 Y72.515 E0.0010
G1 X110.081 Y73.123 E0.0391
G1 X110.057 Y73.135 E0.0010
G1 X106.953 Y74.102 E0.1135
G1 X106.939 Y74.105 E0.0005
G1 X106.325 Y74.199 E0.0217
G1 X106.310 Y74.200 E0.0005
G1 X-106.248 Y74.200 E7.4232
G1 E-1.0000 F1200
; inner perimeter
G1 X-105.830 Y68.600 F4200
G1 E1.0000 F1200
G1 X-107.189 Y68.265 E0.0489 F540
G1 X-108.071 Y67.483 E0.0412
G1 X-108.600 Y65.787 E0.0620
G1 X-108.600 Y-65.830 E4.5965
G1 X-108.265 Y-67.189 E0.0489
G1 X-107.483 Y-68.071 E0.0412
G1 X-105.787 Y-68.600 E0.0620
G1 X105.830 Y-68.600 E7.3903
G1 X107.189 Y-68.265 E0.0489
G1 X108.071 Y-67.483 E0.0412
G1 X108.600 Y-65.787 E0.0620
G1 X108.600 Y65.830 E4.5965
G1 X108.265 Y67.189 E0.0489
G1 X107.483 Y68.071 E0.0412
G1 X105.787 Y68.600 E0.0620
G1 X-105.830 Y68.600 E7.3903
G1 X-105.879 Y69.000 F4200
G1 X-107.380 Y68.630 E0.0540 F540
G1 X-108.420 Y67.709 E0.0485
G1 X-109.000 Y65.848 E0.0681
G1 X-109.000 Y-65.879 E4.6003
G1 X-108.630 Y-67.380 E0.0540
G1 X-107.708 Y-68.420 E0.0485
G1 X-105.848 Y-69.000 E0.0681
G1 X105.879 Y-69.000 E7.3942
G1 X107.380 Y-68.630 E0.0540
G1 X108.420 Y-67.709 E0.0485
G1 X109.000 Y-65.848 E0.0681
G1 X109.000 Y65.879 E4.6003
G1 X108.630 Y67.380 E0.0540
G1 X107.708 Y68.420 E0.0485
G1 X105.848 Y69.000 E0.0681
G1 X-105.879 Y69.000 E7.3942
G1 X-105.927 Y69.400 F4200
G1 X-107.572 Y68.995 E0.0592 F540
G1 X-108.769 Y67.934 E0.0559
G1 X-109.400 Y65.909 E0.0741
G1 X-109.400 Y-65.927 E4.6041
G1 X-108.995 Y-67.572 E0.0591
G1 X-107.934 Y-68.769 E0.0559
G1 X-105.909 Y-69.400 E0.0741
G1 X105.927 Y-69.400 E7.3980
G1 X107.572 Y-68.995 E0.0592
G1 X108.769 Y-67.934 E0.0559
G1 X109.400 Y-65.909 E0.0741
G1 X109.400 Y65.927 E4.6041
G1 X108.995 Y67.572 E0.0591
G1 X107.934 Y68.769 E0.0559
G1 X105.909 Y69.400 E0.0741
G1 X-105.927 Y69.400 E7.3980
; outer perimeter
G1 X-105.976 Y69.800 F4200
G1 X-107.763 Y69.359 E0.0643 F360
G1 X-109.118 Y68.160 E0.0632
G1 X-109.800 Y65.970 E0.0801
G1 X-109.800 Y-65.976 E4.6079
G1 X-109.360 Y-67.763 E0.0643
G1 X-108.159 Y-69.118 E0.0632
G1 X-105.970 Y-69.800 E0.0801
G1 X105.976 Y-69.800 E7.4018
G1 X107.763 Y-69.359 E0.0643
G1 X109.118 Y-68.160 E0.0632
G1 X109.800 Y-65.970 E0.0801
G1 X109.800 Y65.976 E4.6079
G1 X109.360 Y67.763 E0.0643
G1 X108.159 Y69.118 E0.0632
G1 X105.970 Y69.800 E0.0801
G1 X-105.976 Y69.800 E7.4018
; solid layer
G1 X-106.699 Y68.097 F4200
G1 X-107.988 Y66.808 E0.0637 F576
G1 X-108.245 Y65.987 E0.0301
G1 X-105.949 Y68.282 E0.1134
G1 X-105.796 Y68.320 E0.0055
G1 X-105.345 Y68.320 E0.0157
G1 X-108.320 Y65.345 E0.1469
G1 X-108.320 Y64.780 E0.0198
G1 X-104.780 Y68.320 E0.1748
G1 X-104.214 Y68.320 E0.0198
G1 X-108.320 Y64.214 E0.2028
G1 X-108.320 Y63.648 E0.0198
G1 X-103.648 Y68.320 E0.2307
G1 X-103.083 Y68.320 E0.0198
G1 X-108.320 Y63.083 E0.2587
G1 X-108.320 Y62.517 E0.0198
G1 X-102.517 Y68.320 E0.2866
G1 X-101.951 Y68.320 E0.0198
G1 X-108.320 Y61.951 E0.3145
G1 X-108.320 Y61.386 E0.0198
G1 X-101.386 Y68.320 E0.3425
G1 X-100.820 Y68.320 E0.0198
G1 X-108.320 Y60.820 E0.3704
G1 X-108.320 Y60.254 E0.0198
G1 X-100.254 Y68.320 E0.3984
G1 X-99.689 Y68.320 E0.0198
G1 X-108.320 Y59.689 E0.4263
G1 X-108.320 Y59.123 E0.0198
G1 X-99.123 Y68.320 E0.4542
G1 X-98.557 Y68.320 E0.0198
G1 X-108.320 Y58.557 E0.4822
G1 X-108.320 Y57.992 E0.0198
G1 X-97.992 Y68.320 E0.5101
G1 X-97.426 Y68.320 E0.0198
G1 X-108.320 Y57.426 E0.5381
G1 X-108.320 Y56.860 E0.0198
G1 X-96.860 Y68.320 E0.5660
G1 X-96.294 Y68.320 E0.0198
G1 X-108.320 Y56.294 E0.5939
G1 X-108.320 Y55.729 E0.0198
G1 X-95.729 Y68.320 E0.6219
G1 X-95.163 Y68.320 E0.0198
G1 X-108.320 Y55.163 E0.6498
G1 X-108.320 Y54.597 E0.0198
G1 X-94.597 Y68.320 E0.6777
G1 X-94.032 Y68.320 E0.0198
G1 X-108.320 Y54.032 E0.7057
G1 X-108.320 Y53.466 E0.0198
G1 X-93.466 Y68.320 E0.7336
G1 X-92.900 Y68.320 E0.0198
G1 X-108.320 Y52.900 E0.7616
G1 X-108.320 Y52.335 E0.0198
G1 X-92.335 Y68.320 E0.7895
G1 X-91.769 Y68.320 E0.0198
G1 X-108.320 Y51.769 E0.8174
G1 X-108.320 Y51.203 E0.0198
G1 X-91.203 Y68.320 E0.8454
G1 X-90.638 Y68.320 E0.0198
G1 X-108.320 Y50.638 E0.8733
G1 X-108.320 Y50.072 E0.0198
G1 X-90.072 Y68.320 E0.9013
G1 X-89.506 Y68.320 E0.0198
G1 X-108.320 Y49.506 E0.9292
G1 X-108.320 Y48.941 E0.0198
G1 X-88.941 Y68.320 E0.9571
G1 X-88.375 Y68.320 E0.0198
G1 X-108.320 Y48.375 E0.9851
G1 X-108.320 Y47.809 E0.0198
G1 X-87.809 Y68.320 E1.0130
G1 X-87.243 Y68.320 E0.0198
G1 X-108.320 Y47.243 E1.0409
G1 X-108.320 Y46.678 E0.0198
G1 X-86.678 Y68.320 E1.0689
G1 X-86.112 Y68.320 E0.0198
G1 X-108.320 Y46.112 E1.0968
G1 X-108.320 Y45.546 E0.0198
G1 X-85.546 Y68.320 E1.1248
G1 X-84.981 Y68.320 E0.0198
G1 X-108.320 Y44.981 E1.1527
G1 X-108.320 Y44.415 E0.0198
G1 X-84.415 Y68.320 E1.1806
G1 X-83.849 Y68.320 E0.0198
G1 X-108.320 Y43.849 E1.2086
G1 X-108.320 Y43.284 E0.0198
G1 X-83.284 Y68.320 E1.2365
G1 X-82.718 Y68.320 E0.0198
G1 X-108.320 Y42.718 E1.2645
G1 X-108.320 Y42.152 E0.0198
G1 X-82.152 Y68.320 E1.2924
G1 X-81.587 Y68.320 E0.0198
G1 X-108.320 Y41.587 E1.3203
G1 X-108.320 Y41.021 E0.0198
G1 X-81.021 Y68.320 E1.3483
G1 X-80.455 Y68.320 E0.0198
G1 X-108.320 Y40.455 E1.3762
G1 X-108.320 Y39.890 E0.0198
G1 X-79.890 Y68.320 E1.4041
G1 X-79.324 Y68.320 E0.0198
G1 X-108.320 Y39.324 E1.4321
G1 X-108.320 Y38.758 E0.0198
G1 X-78.758 Y68.320 E1.4600
G1 X-78.193 Y68.320 E0.0198
G1 X-108.320 Y38.193 E1.4880
G1 X-108.320 Y37.627 E0.0198
G1 X-77.627 Y68.320 E1.5159
G1 X-77.061 Y68.320 E0.0198
G1 X-108.320 Y37.061 E1.5438
G1 X-108.320 Y36.495 E0.0198
G1 X-76.495 Y68.320 E1.5718
G1 X-75.930 Y68.320 E0.0198
G1 X-108.320 Y35.930 E1.5997
G1 X-108.320 Y35.364 E0.0198
G1 X-75.364 Y68.320 E1.6277
G1 X-74.798 Y68.320 E0.0198
G1 X-108.320 Y34.798 E1.6556
G1 X-108.320 Y34.233 E0.0198
G1 X-74.233 Y68.320 E1.6835
G1 X-73.667 Y68.320 E0.0198
G1 X-108.320 Y33.667 E1.7115
G1 X-108.320 Y33.101 E0.0198
G1 X-73.101 Y68.320 E1.7394
G1 X-72.536 Y68.320 E0.0198
G1 X-108.320 Y32.536 E1.7673
G1 X-108.320 Y31.970 E0.0198
G1 X-71.970 Y68.320 E1.7953
G1 X-71.404 Y68.320 E0.0198
G1 X-108.320 Y31.404 E1.8232
G1 X-108.320 Y30.839 E0.0198
G1 X-70.839 Y68.320 E1.8512
G1 X-70.273 Y68.320 E0.0198
G1 X-108.320 Y30.273 E1.8791
G1 X-108.320 Y29.707 E0.0198
G1 X-69.707 Y68.320 E1.9070
G1 X-69.142 Y68.320 E0.0198
G1 X-108.320 Y29.142 E1.9350
G1 X-108.320 Y28.576 E0.0198
G1 X-68.576 Y68.320 E1.9629
G1 X-68.010 Y68.320 E0.0198
G1 X-108.320 Y28.010 E1.9909
G1 X-108.320 Y27.444 E0.0198
G1 X-67.444 Y68.320 E2.0188
G1 X-66.879 Y68.320 E0.0198
G1 X-108.320 Y26.879 E2.0467
G1 X-108.320 Y26.313 E0.0198
G1 X-66.313 Y68.320 E2.0747
G1 X-65.747 Y68.320 E0.0198
G1 X-108.320 Y25.747 E2.1026
G1 X-108.320 Y25.182 E0.0198
G1 X-65.182 Y68.320 E2.1305
G1 X-64.616 Y68.320 E0.0198
